dist/static/img/optimize/speed.svg

<svg width="320" height="400" viewBox="0 0 320 400" fill="none" xmlns="http://www.w3.org/2000/svg">
<g opacity="0.2" clip-path="url(#clip0_1429_5561)">
<path d="M293.752 188.281H304.286C302.01 168.042 294.142 149.664 282.039 134.534L274.584 141.989C272.295 144.278 269.295 145.422 266.298 145.422C263.301 145.422 260.302 144.278 258.013 141.989C253.435 137.411 253.435 129.996 258.013 125.418L265.468 117.963C250.338 105.859 231.96 97.9919 211.721 95.7153V106.25C211.721 112.726 206.478 117.969 200.002 117.969C193.526 117.969 188.283 112.726 188.283 106.25V95.7153C168.044 97.9919 149.666 105.859 134.536 117.963L141.991 125.418C146.569 129.996 146.569 137.411 141.991 141.989C139.702 144.278 136.705 145.422 133.705 145.422C130.709 145.422 127.709 144.278 125.42 141.989L117.964 134.534C105.861 149.664 97.9938 168.042 95.7172 188.281H106.252C112.728 188.281 117.971 193.524 117.971 200C117.971 206.476 112.728 211.719 106.252 211.719H95.3906C97.2491 228.497 102.87 244.473 112.352 258.594H287.651C297.136 244.492 302.758 228.51 304.613 211.719H293.752C287.276 211.719 282.033 206.476 282.033 200C282.033 193.524 287.276 188.281 293.752 188.281ZM244.234 172.339L231.633 184.94C233.828 189.523 235.158 194.589 235.158 200C235.158 219.385 219.387 235.156 200.002 235.156C180.617 235.156 164.846 219.385 164.846 200C164.846 180.615 180.617 164.844 200.002 164.844C205.413 164.844 210.479 166.174 215.062 168.369L227.663 155.768C232.241 151.19 239.656 151.19 244.234 155.768C248.812 160.345 248.812 167.761 244.234 172.339Z" fill="#1F5AFF"/>
<path d="M200 188.281C193.533 188.281 188.281 193.533 188.281 200C188.281 206.467 193.533 211.719 200 211.719C206.467 211.719 211.719 206.467 211.719 200C211.719 193.533 206.467 188.281 200 188.281Z" fill="#1F5AFF"/>
<path d="M391.132 165.198L371.179 160.403C366.809 141.336 359.393 123.404 349.069 106.912L359.198 90.0208C361.969 85.4095 361.237 79.5044 357.437 75.705L324.295 42.5629C320.483 38.7634 314.612 38.031 309.976 40.802L293.085 50.9277C276.596 40.6067 258.661 33.1909 239.597 28.8177L234.802 8.86841C233.496 3.66211 228.818 0 223.438 0H176.562C171.182 0 166.504 3.66211 165.198 8.86841L160.403 28.8208C141.336 33.1909 123.404 40.6067 106.912 50.9308L90.0208 40.802C85.4095 38.031 79.5044 38.7634 75.705 42.5629L42.5629 75.705C38.7634 79.5044 38.031 85.4095 40.802 90.0208L50.9277 106.912C40.6067 123.404 33.1909 141.336 28.8177 160.403L8.86841 165.198C3.66211 166.504 0 171.182 0 176.562V223.438C0 228.818 3.66211 233.496 8.86841 234.802L28.8208 239.597C33.1909 258.664 40.6067 276.596 50.9308 293.088L40.802 309.979C38.031 314.59 38.7634 320.496 42.5629 324.295L75.705 357.437C79.4952 361.258 85.4095 361.957 90.0238 359.198L106.915 349.072C123.404 359.393 141.339 366.809 160.403 371.182L165.198 391.132C166.504 396.338 171.182 400 176.562 400H223.438C228.818 400 233.496 396.338 234.802 391.132L239.597 371.179C258.664 366.809 276.596 359.393 293.088 349.069L309.979 359.198C314.603 361.969 320.483 361.237 324.295 357.437L357.437 324.295C361.237 320.496 361.969 314.59 359.198 309.976L349.072 293.085C359.393 276.596 366.809 258.661 371.182 239.597L391.132 234.802C396.338 233.496 400 228.818 400 223.438V176.562C400 171.182 396.338 166.504 391.132 165.198ZM223.438 328.906H176.562C170.087 328.906 164.844 323.663 164.844 317.188C164.844 310.712 170.087 305.469 176.562 305.469H223.438C229.913 305.469 235.156 310.712 235.156 317.188C235.156 323.663 229.913 328.906 223.438 328.906ZM303.055 277.362C300.845 280.304 297.379 282.031 293.692 282.031H106.308C102.621 282.031 99.1547 280.304 96.9452 277.35C80.0323 254.865 71.0938 228.119 71.0938 200C71.0938 128.922 128.922 71.0938 200 71.0938C271.078 71.0938 328.906 128.922 328.906 200C328.906 228.131 319.968 254.886 303.055 277.362Z" fill="#1F5AFF"/>
</g>
<defs>
<clipPath id="clip0_1429_5561">
<rect width="400" height="400" fill="white"/>
</clipPath>
</defs>
</svg>

<svg width="320" height="400" viewBox="0 0 320 400" fill="none" xmlns="http://www.w3.org/2000/svg"><g opacity=".2" clip-path="url(#clip0_1429_5561)" fill="#1F5AFF"><path d="M293.752 188.281h10.534c-2.276-20.239-10.144-38.617-22.247-53.747l-7.455 7.455a11.683 11.683 0 01-8.286 3.433 11.681 11.681 0 01-8.285-3.433c-4.578-4.578-4.578-11.993 0-16.571l7.455-7.455c-15.13-12.104-33.508-19.971-53.747-22.248v10.535c0 6.476-5.243 11.719-11.719 11.719-6.476 0-11.719-5.243-11.719-11.719V95.715c-20.239 2.277-38.617 10.144-53.747 22.248l7.455 7.455c4.578 4.578 4.578 11.993 0 16.571a11.678 11.678 0 01-8.286 3.433 11.683 11.683 0 01-8.285-3.433l-7.456-7.455c-12.103 15.13-19.97 33.508-22.247 53.747h10.535c6.476 0 11.719 5.243 11.719 11.719 0 6.476-5.243 11.719-11.719 11.719H95.391c1.858 16.778 7.479 32.754 16.961 46.875h175.299c9.485-14.102 15.107-30.084 16.962-46.875h-10.861c-6.476 0-11.719-5.243-11.719-11.719 0-6.476 5.243-11.719 11.719-11.719zm-49.518-15.942l-12.601 12.601c2.195 4.583 3.525 9.649 3.525 15.06 0 19.385-15.771 35.156-35.156 35.156-19.385 0-35.156-15.771-35.156-35.156 0-19.385 15.771-35.156 35.156-35.156 5.411 0 10.477 1.33 15.06 3.525l12.601-12.601c4.578-4.578 11.993-4.578 16.571 0 4.578 4.577 4.578 11.993 0 16.571z"/><path d="M200 188.281c-6.467 0-11.719 5.252-11.719 11.719s5.252 11.719 11.719 11.719 11.719-5.252 11.719-11.719-5.252-11.719-11.719-11.719z"/><path d="M391.132 165.198l-19.953-4.795c-4.37-19.067-11.786-36.999-22.11-53.491l10.129-16.891a11.715 11.715 0 00-1.761-14.316l-33.142-33.142a11.719 11.719 0 00-14.319-1.761l-16.891 10.126c-16.489-10.321-34.424-17.737-53.488-22.11l-4.795-19.95A11.717 11.717 0 00223.438 0h-46.876a11.717 11.717 0 00-11.364 8.868l-4.795 19.953c-19.067 4.37-36.999 11.786-53.491 22.11L90.021 40.802a11.716 11.716 0 00-14.316 1.76L42.563 75.706a11.716 11.716 0 00-1.761 14.316l10.126 16.891c-10.321 16.492-17.737 34.424-22.11 53.491l-19.95 4.795A11.717 11.717 0 000 176.562v46.876c0 5.38 3.662 10.058 8.868 11.364l19.953 4.795c4.37 19.067 11.786 36.999 22.11 53.491l-10.129 16.891a11.716 11.716 0 001.76 14.316l33.143 33.142c3.79 3.821 9.704 4.52 14.319 1.761l16.891-10.126c16.489 10.321 34.424 17.737 53.488 22.11l4.795 19.95A11.717 11.717 0 00176.562 400h46.876c5.38 0 10.058-3.662 11.364-8.868l4.795-19.953c19.067-4.37 36.999-11.786 53.491-22.11l16.891 10.129a11.716 11.716 0 0014.316-1.761l33.142-33.142a11.72 11.72 0 001.761-14.319l-10.126-16.891c10.321-16.489 17.737-34.424 22.11-53.488l19.95-4.795A11.717 11.717 0 00400 223.438v-46.876c0-5.38-3.662-10.058-8.868-11.364zM223.438 328.906h-46.876c-6.475 0-11.718-5.243-11.718-11.718 0-6.476 5.243-11.719 11.718-11.719h46.876c6.475 0 11.718 5.243 11.718 11.719 0 6.475-5.243 11.718-11.718 11.718zm79.617-51.544a11.701 11.701 0 01-9.363 4.669H106.308a11.678 11.678 0 01-9.363-4.681C80.032 254.865 71.094 228.119 71.094 200c0-71.078 57.828-128.906 128.906-128.906S328.906 128.922 328.906 200c0 28.131-8.938 54.886-25.851 77.362z"/></g><defs><clipPath id="clip0_1429_5561"><path fill="#fff" d="M0 0h400v400H0z"/></clipPath></defs></svg>
